source/img/sprite/leaf.svg

<svg width="24" height="24" viewBox="0 0 24 24" fill="none" xmlns="http://www.w3.org/2000/svg">
<path d="M11.662 17.7206C10.9227 14.5975 8.74849 11.9689 5.75492 10.579C4.28063 9.89447 2.68662 9.54707 1.09082 9.53679C1.18415 11.7498 2.00095 13.9041 3.46387 15.6727C5.5203 18.1589 8.63129 19.6146 11.9269 19.6358C11.8999 18.9962 11.8123 18.3552 11.662 17.7206ZM11.662 17.7206C11.0551 15.1567 9.4811 12.9262 7.28073 11.4406C7.31788 11.2191 7.36249 10.998 7.41465 10.7777C8.04019 8.13531 9.69285 5.84696 11.9999 4.36328C14.3069 5.84696 15.9595 8.13532 16.5851 10.7777C16.6372 10.998 16.6819 11.2191 16.719 11.4406C14.5186 12.9262 12.9447 15.1567 12.3378 17.7206M11.662 17.7206C11.8122 18.355 11.8998 18.9958 11.9268 19.6352C11.9724 19.6357 12.0181 19.636 12.0638 19.636C12.9876 19.636 13.8975 19.5232 14.7742 19.3066C14.7792 19.3 14.7841 19.2934 14.7891 19.2868C13.9111 19.5105 12.9994 19.6298 12.0729 19.6358M12.3378 17.7206C13.0771 14.5975 15.2513 11.9689 18.2449 10.579C19.7192 9.89447 21.3132 9.54707 22.909 9.53679C22.8157 11.7498 21.9989 13.9041 20.536 15.6727C18.4795 18.1589 15.3685 19.6146 12.0729 19.6358M12.3378 17.7206C12.1876 18.3552 12.0999 18.9962 12.0729 19.6358" stroke="#0266C1" stroke-linecap="round" stroke-linejoin="round"/>
</svg>

<svg width="24" height="24" fill="none" xmlns="http://www.w3.org/2000/svg"><path d="M11.66 17.72a10.6 10.6 0 0 0-5.9-7.14 11.25 11.25 0 0 0-4.67-1.04c.1 2.21.91 4.36 2.37 6.13a11.07 11.07 0 0 0 8.47 3.97c-.03-.64-.12-1.28-.27-1.92Zm0 0c-.6-2.56-2.18-4.8-4.38-6.28l.13-.66A10.53 10.53 0 0 1 12 4.36a10.53 10.53 0 0 1 4.72 7.08 10.52 10.52 0 0 0-4.38 6.28m-.68 0c.15.64.24 1.28.27 1.92h.13c.93 0 1.84-.12 2.71-.33l.02-.02c-.88.22-1.8.34-2.72.35m.27-1.92a10.6 10.6 0 0 1 5.9-7.14 11.25 11.25 0 0 1 4.67-1.04 10.3 10.3 0 0 1-2.37 6.13 11.07 11.07 0 0 1-8.47 3.97m.27-1.92c-.15.64-.24 1.28-.27 1.92" stroke="#0266C1" stroke-linecap="round" stroke-linejoin="round"/></svg>
